public/svgs/xyz.svg

<svg viewBox="0 0 72 18" fill="current" xmlns="http://www.w3.org/2000/svg">
    <path fill-rule="evenodd" clip-rule="evenodd"
        d="M20.8308 0.00480152C21.0683 -0.0142313 21.307 0.0234985 21.527 0.1148C21.7196 0.194719 21.8931 0.313772 22.0368 0.463953L22.0934 0.536255C22.2103 0.698404 22.2919 0.883465 22.3328 1.07914C22.3737 1.2748 22.3729 1.47702 22.3307 1.67239C22.2528 2.04442 22.1173 2.40204 21.929 2.73221C21.4073 3.62267 20.7897 4.45344 20.0874 5.20965C17.9577 7.51949 15.6284 9.63704 13.1266 11.5376C10.6566 13.4912 8.01915 15.2235 5.24505 16.7141C4.34138 17.2045 3.38639 17.5939 2.39745 17.8752C2.03169 17.9739 1.65265 18.0145 1.27429 17.9954C1.07478 17.9872 0.879016 17.9369 0.700198 17.848C0.521464 17.7592 0.363391 17.6337 0.236412 17.4797C0.0680432 17.2517 -0.0148992 16.9717 0.00220154 16.6887C0.0166831 16.4574 0.068099 16.2297 0.154222 16.0145C0.349685 15.5377 0.60014 15.0853 0.900729 14.6667C1.61591 13.6846 2.39734 12.7524 3.23912 11.8763C2.95627 11.0133 2.81191 10.1108 2.8118 9.20265C2.80623 7.68857 3.20722 6.20053 3.97265 4.89417C4.73808 3.58788 5.84004 2.51088 7.16354 1.77559C8.48709 1.04028 9.9838 0.673668 11.4974 0.713921C13.0109 0.754176 14.4859 1.19994 15.7684 2.00455C16.9302 1.3092 18.1574 0.729301 19.4324 0.273618C19.8828 0.115885 20.354 0.0253881 20.8308 0.00480152ZM20.8627 1.49503C20.5385 1.51647 20.2189 1.58357 19.9135 1.69433C18.9268 2.03917 17.9736 2.47358 17.0659 2.99176C17.3542 3.26312 17.6238 3.5539 17.8726 3.86186C15.9179 5.9146 13.8017 7.80738 11.5446 9.52214C9.31717 11.2809 6.95224 12.8585 4.4729 14.2397C4.26696 13.9579 4.07782 13.6641 3.90653 13.36C3.2698 14.0449 2.67495 14.7676 2.12523 15.5242C1.89906 15.8326 1.70502 16.1634 1.5462 16.5114C1.71079 16.4975 1.87396 16.469 2.03347 16.4261C2.91229 16.173 3.76108 15.8249 4.56467 15.3882C7.25228 13.9405 9.8082 12.2603 12.2028 10.3669C14.637 8.51957 16.9048 6.46255 18.98 4.21935C19.5264 3.63214 20.0161 2.99503 20.4431 2.31662L20.638 2.01722C20.7325 1.85228 20.8078 1.67701 20.8627 1.49503Z"
        fill="current" />
    <path
        d="M19.5146 7.25698C19.8059 8.5003 19.8134 9.79325 19.5365 11.0399C19.2596 12.2865 18.7056 13.4548 17.9153 14.4579C17.1249 15.461 16.1185 16.2733 14.9713 16.8343C13.824 17.3951 12.5652 17.6905 11.2882 17.6982C9.90337 17.6975 8.54023 17.354 7.3205 16.6983C9.40501 15.4589 11.4134 14.0957 13.3349 12.6166L13.7054 12.3194C15.7467 10.7563 17.6871 9.06544 19.5146 7.25698Z"
        fill="current" />
    <path
        d="M33.2718 11.4045C33.0219 13.847 32.6833 15.0177 30.6553 15.3341C30.2503 15.4006 29.0101 15.4006 28.4943 15.4006H28.2885L28.4245 13.5244C28.6776 13.5181 29.4591 13.4991 29.8198 13.4991C30.4305 13.4991 30.8419 13.4357 30.9495 12.5941C31.0064 12.1543 32.0283 3.53006 32.136 2.60861H34.2022L33.2718 11.4045Z"
        fill="current" />
    <path
        d="M52.2367 8.23739L49.5442 8.25314L49.3826 9.68652H54.85L54.6665 11.4616H49.1898V11.5407C49.136 12.0153 49.0884 12.3729 49.0504 12.6892C49.0314 12.8537 48.9997 12.9897 48.9997 13.0909C48.7561 15.2044 48.2278 15.3215 47.2376 15.3595H44.9437L45.1776 13.6477H46.3042C46.3943 13.6483 46.4829 13.6243 46.5603 13.5782C46.5798 13.5681 46.5971 13.5541 46.611 13.5371C46.6965 13.4236 46.7501 13.2893 46.7661 13.1481C46.7661 13.1481 46.8514 12.5152 46.9558 11.5661V11.4678H41.0486L41.2322 9.6927H47.152L47.3133 8.2689L44.3613 8.28806L44.5448 6.50367H52.4202L52.2367 8.23739Z"
        fill="current" />
    <path fill-rule="evenodd" clip-rule="evenodd"
        d="M65.1522 7.4399H69.012C69.1346 7.4404 69.2558 7.46695 69.3674 7.51745C69.479 7.56796 69.5788 7.64145 69.66 7.73312C69.7412 7.8248 69.8022 7.93268 69.8389 8.04952C69.8756 8.16638 69.8871 8.2897 69.8729 8.41134L69.1702 14.2552C69.1491 14.47 69.0492 14.6696 68.8897 14.815C68.7302 14.9605 68.5225 15.0418 68.3066 15.0431H58.5331C58.4134 15.0419 58.2951 15.0157 58.1862 14.9661C58.0772 14.9166 57.9799 14.8446 57.9003 14.7551C57.8187 14.6648 57.7564 14.5588 57.7177 14.4433C57.6791 14.3279 57.6646 14.2056 57.6754 14.0843L58.2798 8.24048C58.2965 8.0228 58.395 7.81941 58.5551 7.67102C58.7152 7.52267 58.9254 7.44005 59.1437 7.4399H63.0987L63.26 5.96882L65.3104 5.95306L65.1522 7.4399ZM59.4854 13.284H62.4467L62.5923 11.9835H59.6279L59.4854 13.284ZM64.5383 13.284H67.5379L67.7023 11.9835H64.6776L64.5383 13.284ZM59.7987 10.5344H62.7631L62.9121 9.19616H59.9474L59.7987 10.5344ZM64.8324 10.5344H67.8889L68.0598 9.19616H64.9749L64.8324 10.5344Z"
        fill="current" />
    <path
        d="M38.8845 9.00336C39.2863 10.7246 39.4542 11.3606 39.644 12.0978V12.1389L37.6569 12.6926C37.5683 12.2529 37.1411 10.323 36.9354 9.40535C36.7519 8.56057 36.3817 6.61145 36.3026 6.19376L38.0997 5.67498L38.8845 9.00336Z"
        fill="current" />
    <path
        d="M28.8422 6.21879C28.6587 6.68395 27.8519 8.80016 27.5766 9.43316C27.0387 10.6766 26.3297 12.3031 26.1652 12.6797L24.3681 11.9424C24.5579 11.5153 25.4248 9.59138 25.7412 8.82569C26.007 8.19605 26.839 6.11474 27.0068 5.69043L28.8422 6.21879Z"
        fill="current" />
    <path
        d="M49.9081 3.33967H54.6288C54.7524 3.33839 54.8747 3.36244 54.9885 3.40981L55.0401 3.4472C55.2007 3.5293 55.3319 3.65919 55.4158 3.81891C55.4997 3.97868 55.5319 4.16067 55.5082 4.33955L55.2678 6.39924H53.518L53.6382 5.20965L53.6067 5.16546C53.5964 5.15369 53.5838 5.1442 53.5696 5.13765C53.5555 5.13112 53.5401 5.12763 53.5245 5.12746H43.6528L43.6147 5.21922L43.4377 6.46876H41.7164L42.0074 4.118C42.0336 3.90829 42.1357 3.71526 42.2942 3.57543C42.4526 3.43563 42.6569 3.35874 42.8682 3.35883H47.6964L47.8766 2.09323H50.0568L49.9081 3.33967Z"
        fill="current" />
    <path
        d="M65.6299 3.33967H70.4519C70.5747 3.33798 70.6964 3.36184 70.8091 3.4095L70.857 3.4472C71.0179 3.52893 71.1494 3.65879 71.2333 3.8186C71.3172 3.97847 71.3493 4.16062 71.3251 4.33955L71.0878 6.39924H69.3349L69.4616 5.17473L69.4267 5.12746C69.4162 5.11627 69.4035 5.10718 69.3893 5.10119C69.3752 5.09523 69.3599 5.09231 69.3445 5.09254H59.2735L59.2389 5.18431L59.0519 6.46876H57.334L57.625 4.118C57.6513 3.90829 57.7533 3.71526 57.9118 3.57543C58.0703 3.43563 58.2745 3.35874 58.4859 3.35883H63.4658L63.5986 2.09323H65.7788L65.6299 3.33967Z"
        fill="current" />
</svg>

<svg xmlns="http://www.w3.org/2000/svg" fill="current" viewBox="0 0 72 18"><path fill-rule="evenodd" d="M20.83.005a1.5 1.5 0 0 1 1.207.459l.056.072a1.43 1.43 0 0 1 .238 1.136c-.078.372-.214.73-.402 1.06-.522.89-1.14 1.721-1.842 2.478a53.4 53.4 0 0 1-6.96 6.328 53.6 53.6 0 0 1-7.882 5.176c-.904.49-1.859.88-2.848 1.161-.365.099-.744.14-1.123.12a1.42 1.42 0 0 1-1.038-.515 1.2 1.2 0 0 1-.234-.791c.015-.232.066-.46.152-.674.196-.477.446-.93.747-1.348a27 27 0 0 1 2.338-2.79 8.6 8.6 0 0 1-.427-2.674 8.461 8.461 0 0 1 12.956-7.198A20.7 20.7 0 0 1 19.432.274c.45-.158.922-.249 1.399-.27m.033 1.49a3.5 3.5 0 0 0-.95.2c-.986.344-1.94.779-2.847 1.297q.433.407.807.87a53 53 0 0 1-6.328 5.66 53 53 0 0 1-7.072 4.718 9 9 0 0 1-.566-.88 23 23 0 0 0-1.782 2.164q-.34.465-.579.987.248-.02.487-.085a12.6 12.6 0 0 0 2.532-1.038 52.3 52.3 0 0 0 7.638-5.021 52.3 52.3 0 0 0 6.777-6.148 13 13 0 0 0 1.463-1.902l.195-.3q.142-.248.225-.522" clip-rule="evenodd"/><path d="M19.515 7.257a8.502 8.502 0 0 1-8.227 10.441 8.4 8.4 0 0 1-3.968-1 61 61 0 0 0 6.015-4.081l.37-.298a61 61 0 0 0 5.81-5.062M33.272 11.405c-.25 2.442-.589 3.613-2.617 3.93-.405.066-1.645.066-2.16.066h-.207l.136-1.877a78 78 0 0 1 1.396-.025c.61 0 1.022-.063 1.13-.905.056-.44 1.078-9.064 1.186-9.985h2.066zM52.237 8.237l-2.693.016-.161 1.434h5.467l-.184 1.775H49.19v.079c-.054.474-.102.832-.14 1.148-.019.165-.05.3-.05.402-.244 2.113-.772 2.23-1.762 2.269h-2.294l.234-1.712h1.126c.09 0 .179-.024.256-.07a.2.2 0 0 0 .051-.04.8.8 0 0 0 .155-.39s.085-.633.19-1.582v-.098h-5.907l.183-1.775h5.92l.161-1.424-2.952.02.184-1.785h7.875z"/><path fill-rule="evenodd" d="M65.152 7.44h3.86a.87.87 0 0 1 .86.971l-.702 5.844a.873.873 0 0 1-.863.788h-9.774a.86.86 0 0 1-.633-.288.88.88 0 0 1-.225-.67l.605-5.845a.867.867 0 0 1 .864-.8h3.955l.161-1.471 2.05-.016zm-5.667 5.844h2.962l.145-1.3h-2.964zm5.053 0h3l.164-1.3h-3.024zm-4.74-2.75h2.965l.15-1.338h-2.966zm5.034 0h3.057l.17-1.338h-3.084z" clip-rule="evenodd"/><path d="M38.885 9.003c.401 1.722.57 2.358.759 3.095v.04l-1.987.555c-.089-.44-.516-2.37-.722-3.288-.183-.844-.553-2.794-.632-3.211l1.797-.519zM28.842 6.219c-.183.465-.99 2.581-1.265 3.214-.538 1.244-1.247 2.87-1.412 3.247l-1.797-.738c.19-.427 1.057-2.35 1.373-3.116.266-.63 1.098-2.711 1.266-3.136zM49.908 3.34h4.72a.9.9 0 0 1 .36.07l.052.037a.87.87 0 0 1 .468.893l-.24 2.06h-1.75l.12-1.19-.031-.045a.11.11 0 0 0-.082-.038h-9.872l-.038.092-.177 1.25h-1.722l.291-2.351a.87.87 0 0 1 .861-.76h4.828l.18-1.265h2.18zM65.63 3.34h4.822a.9.9 0 0 1 .357.07l.048.037a.87.87 0 0 1 .468.893l-.237 2.06h-1.753l.127-1.225-.035-.048a.11.11 0 0 0-.083-.034h-10.07l-.035.091-.187 1.285h-1.718l.291-2.351a.87.87 0 0 1 .86-.76h4.98l.134-1.265h2.18z"/></svg>
